X:106
M:2/4
L:1/8
K:G Minor
gG GG||fd dB|cd e2|fd dB|cA AF|fd dB|cd ee|(dg) g^f|gG GG||

